src/icons/icons_set_01/051-mal-voyant.svg

<svg height="50" viewBox="0 0 50 50" width="50" xmlns="http://www.w3.org/2000/svg"><path d="m33.1211 29.2548c.026-7.7445.0455-15.48875.05575-23.23325.00325-2.5905-1.50025-4.07075-4.12225-4.0765-3.8715-.00825-7.74325-.002-11.615.0015-3.83 0-7.66.00125-11.49-.0005-2.76275-.0015-4.20225 1.425-4.202 4.22175.0005 7.661.0125 15.322.02875 22.983.005 2.37475 1.589 4.01075 3.94725 4.016 7.8285.0175 15.657.016 23.4855.0015 2.32325-.0045 3.90425-1.60325 3.912-3.9135zm1.826-23.53375c.018 7.8705.0145 15.7415.00425 23.612-.00375 3.17975-2.5215 5.66175-5.709 5.66475-3.91425.00325-7.829.00075-11.7435.00075-3.956.00025-7.9125.00375-11.8685-.001-3.194-.00375-5.6055-2.3585-5.6145-5.56825-.023-7.91225-.01925-15.82475-.00025-23.737.00775-3.2445 2.4355-5.6165 5.71525-5.613 7.8695.008 15.73925.02975 23.60875.057 3.1095.01075 5.60025 2.47425 5.6075 5.58475zm-13.3910448 16.6298192c.4458443-.1089284.547976-.4148927.4006706-.853907-.2467365-.7355838-.2720239-1.5592752-.8730298-2.4350185-.179467.3019016-.328982.4626281-.3780838.6512849-.235443.9026581.1011497 1.7167008.4365149 2.5170322.0375629.0893772.287.1515857.4139281.1206084zm-10.4500881-.8447661c.1792216-.2239506-.0432095-.4854803-.1632634-.6820084-1.27394592-2.0825883-1.15585612-4.2058026-.1968982-6.3569473.0640778-.1437143.1833952-.2610218.2533652-.3577624-.1085149-.616245-.413928-.4605968-.7271974-.2978391-1.40136509.7282204-2.59822118 1.7309199-3.61241861 2.9565544-.45075442.5443879-.55313165 1.0715097.05082035 1.6963878 1.10233515 1.1405739 2.2898619 2.1437812 3.63647846 2.9479213.232988.139144.5138502.4004197.7591136.0936937zm16.4962368-6.8172903c1.9684907.4044822 2.9303947 2.838993 1.7092333 4.4043621-5.3818015 6.8982882-15.6700992 7.9096208-22.28190054 2.2133531-.9142753-.7876358-1.7271554-1.6534766-2.45287983-2.6198667-.60861667-.8104879-.61941906-1.6098037.01202994-2.4093734 2.09689186-2.6561762 4.75452616-4.4609845 7.89188493-5.521576.3535329-.1195927.975898-.3928023 1.0183711.1944968.0522934.720603.905928 1.3787435.1144071 2.2011654-1.6454009 1.7098451-2.3475565 3.7325102-1.5670835 6.1192854.976389 2.9855004 4.0783945 4.3713535 6.7981426 3.7518076.6908621-.1574256.864928-.5182349.7090298-1.1687581-.1735748-.7246656-.5958502-.6119286-1.1293411-.4412996-2.1103949.6746449-4.3312688-.5905999-5.0152567-2.8202034-.6383233-2.0818266.5725268-4.5574712 2.6807121-5.0805304 1.139407-.2826044 1.4315627-.6733754.919431-1.7344747-.1053233-.2181106-.1261916-.4895428-.1460778-.7399003-.027988-.3536998-.5072215-.8483209.2013173-1.007016.5872574-.13178051.8757304.1724064 1.0002035.7975384.1551616.7777332.4225208 1.5326144.66091 2.2907964.1347844.4286039.4063173.8495904.8725388.6837857.5558322-.1970359.0778263-.6035494.0476287-.9308424-.0778263-.8462895-.3076227-1.6410349-.7372633-2.5073835 1.0910417-.3199295 1.5300117.1005492 1.7669278 1.0689706.7527305 3.0779244 1.5626645 6.1411219 2.3664607 9.2053351.0913294.3483676.2256227.8851381.6451975.7675767.5263712-.1472691.4900359-.7081613.3631077-1.180692-.8001136-2.9811838-1.607838-5.9603364-2.4074606-8.9415202-.0299521-.1112136-.0039282-.2386775-.0039282-.4682142.8990538.1467613 1.4647064.5210279 1.700395 1.4800545.5781735 2.3532589 1.2172333 4.6907751 1.8585026 7.0267679.0736527.2676236-.0650598.8351175.4401976.7256813.4829161-.1046119.7127124-.5215358.563934-1.0821741-.3228442-1.2149701-.6336586-2.4334951-.9457004-3.6515122-.2661317-1.039009-.5268622-2.0792875-.8241735-3.2538856 1.0527423.3199294 1.5800955.9189085 1.799826 1.8464499.2516467 1.0616072.5067305 2.1227065.7888202 3.1756807.0903473.3366876.1301198.8683799.6351317.7360916.4009161-.1051196.4777604-.5611461.4058262-.9569953-.1335568-.7327908-.3059041-1.4582181-.4591017-2.1729811zm-18.09669844 9.427749c.90640534-.4930553 1.95941724.720779 3.00833004.9907793.5717177.1470607 1.1434354.2943807 1.8979292.4883867-1.4564214 2.0780428-2.8031289 4.082685-4.2419478 6.0077016-.51119429.683949-1.36310434.2720753-2.05345772.2884154-1.92565913.0451297-1.89286554.013487-1.93843899-2.0938642-.01880809-.8704333.14130181-1.599512.72121794-2.2173225.16806717-.1789627.27971007-.4178391.42631672-.621701.70843808-.9837764 1.2463977-2.3345561 2.18005061-2.8423953zm16.52383474-14.2150892c-.6311868.3921202-1.2014281-.50453277-1.9025368-.62705528-.8584329-.15044513-1.6748181-.55147166-2.5091563-.84417769.3496094-.80999656.9569377-1.44018111 1.44332-2.15485563.3552788-.52234548.7729203-1.01171339 1.0570961-1.57112854.6649666-1.30875225 1.6164712-1.8267649 3.1004215-1.68017117 1.5392265.15213011 1.5505651.03369971 1.5531636 1.85035469.2889002 1.29792019-.6914235 2.22201434-1.3915873 3.2570768-.4200038.6212782-.7646525 1.40551855-1.3507208 1.76995682z" fill-rule="evenodd" transform="translate(8 8)"/></svg>

<?xml version="1.0" encoding="UTF-8"?>
<svg width="50px" height="50px" viewBox="0 0 50 50" version="1.1" xmlns="http://www.w3.org/2000/svg" xmlns:xlink="http://www.w3.org/1999/xlink">
    <!-- Generator: Sketch 52.5 (67469) - http://www.bohemiancoding.com/sketch -->
    <title>051-mal-voyant</title>
    <desc>Created with Sketch.</desc>
    <g id="051-mal-voyant" stroke="none" stroke-width="1" fill="none" fill-rule="evenodd">
        <g id="Group-10" transform="translate(8.000000, 8.000000)" fill="#000000">
            <path d="M33.1211,29.2548 C33.1471,21.5103 33.1666,13.76605 33.17685,6.02155 C33.1801,3.43105 31.6766,1.9508 29.0546,1.94505 C25.1831,1.9368 21.31135,1.94305 17.4396,1.94655 C13.6096,1.94655 9.7796,1.9478 5.9496,1.94605 C3.18685,1.94455 1.74735,3.37105 1.7476,6.1678 C1.7481,13.8288 1.7601,21.4898 1.77635,29.1508 C1.78135,31.52555 3.36535,33.16155 5.7236,33.1668 C13.5521,33.1843 21.3806,33.1828 29.2091,33.1683 C31.53235,33.1638 33.11335,31.56505 33.1211,29.2548 Z M34.9471,5.72105 C34.9651,13.59155 34.9616,21.46255 34.95135,29.33305 C34.9476,32.5128 32.42985,34.9948 29.24235,34.9978 C25.3281,35.00105 21.41335,34.99855 17.49885,34.99855 C13.54285,34.9988 9.58635,35.0023 5.63035,34.99755 C2.43635,34.9938 0.02485,32.63905 0.01585,29.4293 C-0.00715,21.51705 -0.0034,13.60455 0.0156,5.6923 C0.02335,2.4478 2.4511,0.0758 5.73085,0.0793 C13.60035,0.0873 21.4701,0.10905 29.3396,0.1363 C32.4491,0.14705 34.93985,2.61055 34.9471,5.72105 Z M21.5560552,22.3508692 C22.0018995,22.2419408 22.1040312,21.9359765 21.9567258,21.4969622 C21.7099893,20.7613784 21.6847019,19.937687 21.083696,19.0619437 C20.904229,19.3638453 20.754714,19.5245718 20.7056122,19.7132286 C20.4701692,20.6158867 20.8067619,21.4299294 21.1421271,22.2302608 C21.17969,22.319638 21.4291271,22.3818465 21.5560552,22.3508692 Z M11.1059671,21.5061031 C11.2851887,21.2821525 11.0627576,21.0206228 10.9427037,20.8240947 C9.66875778,18.7415064 9.78684758,16.6182921 10.7458055,14.4671474 C10.8098833,14.3234331 10.9292007,14.2061256 10.9991707,14.109385 C10.8906558,13.49314 10.5852427,13.6487882 10.2719733,13.8115459 C8.87060821,14.5397663 7.67375212,15.5424658 6.65955469,16.7681003 C6.20880027,17.3124882 6.10642304,17.83961 6.71037504,18.4644881 C7.81271019,19.605062 9.00023694,20.6082693 10.3468535,21.4124094 C10.5798415,21.5515534 10.8607037,21.8128291 11.1059671,21.5061031 Z M27.6022039,14.6888128 C29.5706946,15.093295 30.5325986,17.5278058 29.3114372,19.0931749 C23.9296357,25.9914631 13.641338,27.0027957 7.02953666,21.306528 C6.11526136,20.5188922 5.30238126,19.6530514 4.57665683,18.6866613 C3.96804016,17.8761734 3.95723777,17.0768576 4.58868677,16.2772879 C6.68557863,13.6211117 9.34321293,11.8163034 12.4805717,10.7557119 C12.8341046,10.6361192 13.4564697,10.3629096 13.4989428,10.9502087 C13.5512362,11.6708117 14.4048708,12.3289522 13.6133499,13.1513741 C11.967949,14.8612192 11.2657934,16.8838843 12.0462664,19.2706595 C13.0226554,22.2561599 16.1246609,23.642013 18.844409,23.0224671 C19.5352711,22.8650415 19.709337,22.5042322 19.5534388,21.853709 C19.379864,21.1290434 18.9575886,21.2417804 18.4240977,21.4124094 C16.3137028,22.0870543 14.0928289,20.8218095 13.408841,18.592206 C12.7705177,16.5103794 13.9813678,14.0347348 16.0895531,13.5116756 C17.2289601,13.2290712 17.5211158,12.8383002 17.0089841,11.7772009 C16.9036608,11.5590903 16.8827925,11.2876581 16.8629063,11.0373006 C16.8349183,10.6836008 16.3556848,10.1889797 17.0642236,10.0302846 C17.651481,9.89850409 17.939954,10.202691 18.0644271,10.827823 C18.2195887,11.6055562 18.4869479,12.3604374 18.7253371,13.1186194 C18.8601215,13.5472233 19.1316544,13.9682098 19.5978759,13.8024051 C20.1537081,13.6053692 19.6757022,13.1988557 19.6455046,12.8715627 C19.5676783,12.0252732 19.3378819,11.2305278 18.9082413,10.3641792 C19.999283,10.0442497 20.438253,10.4647284 20.6751691,11.4331498 C21.4278996,14.5110742 22.2378336,17.5742717 23.0416298,20.6384849 C23.1329592,20.9868525 23.2672525,21.523623 23.6868273,21.4060616 C24.2131985,21.2587925 24.1768632,20.6979003 24.049935,20.2253696 C23.2498214,17.2441858 22.442097,14.2650332 21.6424744,11.2838494 C21.6125223,11.1726358 21.6385462,11.0451719 21.6385462,10.8156352 C22.5376,10.9623965 23.1032526,11.3366631 23.3389412,12.2956897 C23.9171147,14.6489486 24.5561745,16.9864648 25.1974438,19.3224576 C25.2710965,19.5900812 25.132384,20.1575751 25.6376414,20.0481389 C26.1205575,19.943527 26.3503538,19.5266031 26.2015754,18.9659648 C25.8787312,17.7509947 25.5679168,16.5324697 25.255875,15.3144526 C24.9897433,14.2754436 24.7290128,13.2351651 24.4317015,12.060567 C25.4844438,12.3804964 26.011797,12.9794755 26.2315275,13.9070169 C26.4831742,14.9686241 26.738258,16.0297234 27.0203477,17.0826976 C27.110695,17.4193852 27.1504675,17.9510775 27.6554794,17.8187892 C28.0563955,17.7136696 28.1332398,17.2576431 28.0613056,16.8617939 C27.9277488,16.1290031 27.7554015,15.4035758 27.6022039,14.6888128 Z M9.50550546,24.1165618 C10.4119108,23.6235065 11.4649227,24.8373408 12.5138355,25.1073411 C13.0855532,25.2544018 13.6572709,25.4017218 14.4117647,25.5957278 C12.9553433,27.6737706 11.6086358,29.6784128 10.1698169,31.6034294 C9.65862261,32.2873784 8.80671256,31.8755047 8.11635918,31.8918448 C6.19070005,31.9369745 6.22349364,31.9053318 6.17792019,29.7979806 C6.1591121,28.9275473 6.319222,28.1984686 6.89913813,27.5806581 C7.0672053,27.4016954 7.1788482,27.162819 7.32545485,26.9589571 C8.03389293,25.9751807 8.57185255,24.624401 9.50550546,24.1165618 Z M26.0293402,9.9014726 C25.3981534,10.2935928 24.8279121,9.39693983 24.1268034,9.27441732 C23.2683705,9.12397219 22.4519853,8.72294566 21.6176471,8.43023963 C21.9672565,7.62024307 22.5745848,6.99005852 23.0609671,6.275384 C23.4162459,5.75303852 23.8338874,5.26367061 24.1180632,4.70425546 C24.7830298,3.39550321 25.7345344,2.87749056 27.2184847,3.02408429 C28.7577112,3.1762144 28.7690498,3.057784 28.7716483,4.87443898 C29.0605485,6.17235917 28.0802248,7.09645332 27.380061,8.13151578 C26.9600572,8.75279398 26.6154085,9.53703433 26.0293402,9.9014726 Z" id="Combined-Shape"></path>
        </g>
    </g>
</svg>
